icons/modern/meat-on-bone.svg

<svg width="32" height="32" viewBox="0 0 32 32" fill="none" xmlns="http://www.w3.org/2000/svg">
<path d="M10.1411 2.94458C11.047 3.97996 11.057 5.55294 10.151 6.59827C9.96186 6.80734 9.98177 7.11596 10.1709 7.31507L13.5259 10.6701C14.3124 11.4566 14.3124 12.7408 13.5259 13.5273C12.7395 14.3138 11.4552 14.3138 10.6687 13.5273L7.31368 10.1723C7.11457 9.98316 6.80595 9.96325 6.59688 10.1524C5.55155 11.0584 3.97857 11.0484 2.94319 10.1424C1.72861 9.06725 1.68879 7.21551 2.81377 6.09054C3.34141 5.55294 4.0383 5.28414 4.73519 5.27418C5.0239 5.27418 5.26284 5.03525 5.27279 4.73658C5.28275 4.03969 5.55155 3.3428 6.08915 2.8052C7.21413 1.69018 9.06586 1.73 10.1411 2.94458Z" fill="#9A9397"/>
<path d="M10.1411 2.94458C11.047 3.97996 11.057 5.55294 10.151 6.59827C9.96186 6.80734 9.98177 7.11596 10.1709 7.31507L13.5259 10.6701C14.3124 11.4566 14.3124 12.7408 13.5259 13.5273C12.7395 14.3138 11.4552 14.3138 10.6687 13.5273L7.31368 10.1723C7.11457 9.98316 6.80595 9.96325 6.59688 10.1524C5.55155 11.0584 3.97857 11.0484 2.94319 10.1424C1.72861 9.06725 1.68879 7.21551 2.81377 6.09054C3.34141 5.55294 4.0383 5.28414 4.73519 5.27418C5.0239 5.27418 5.26284 5.03525 5.27279 4.73658C5.28275 4.03969 5.55155 3.3428 6.08915 2.8052C7.21413 1.69018 9.06586 1.73 10.1411 2.94458Z" fill="url(#paint0_radial_18_29741)"/>
<path d="M10.1411 2.94458C11.047 3.97996 11.057 5.55294 10.151 6.59827C9.96186 6.80734 9.98177 7.11596 10.1709 7.31507L13.5259 10.6701C14.3124 11.4566 14.3124 12.7408 13.5259 13.5273C12.7395 14.3138 11.4552 14.3138 10.6687 13.5273L7.31368 10.1723C7.11457 9.98316 6.80595 9.96325 6.59688 10.1524C5.55155 11.0584 3.97857 11.0484 2.94319 10.1424C1.72861 9.06725 1.68879 7.21551 2.81377 6.09054C3.34141 5.55294 4.0383 5.28414 4.73519 5.27418C5.0239 5.27418 5.26284 5.03525 5.27279 4.73658C5.28275 4.03969 5.55155 3.3428 6.08915 2.8052C7.21413 1.69018 9.06586 1.73 10.1411 2.94458Z" fill="url(#paint1_radial_18_29741)"/>
<path d="M8.60719 5.7053L13.5259 10.6701C14.3124 11.4566 14.3124 12.7409 13.5259 13.5274C12.7394 14.3139 11.4552 14.3139 10.6687 13.5274L5.74995 8.56255C4.99956 7.84968 4.95189 6.39201 5.74999 5.70525C6.50409 5.05635 8.07035 5.1402 8.60719 5.7053Z" fill="url(#paint2_linear_18_29741)"/>
<path d="M8.60719 5.7053L13.5259 10.6701C14.3124 11.4566 14.3124 12.7409 13.5259 13.5274C12.7394 14.3139 11.4552 14.3139 10.6687 13.5274L5.74995 8.56255C4.99956 7.84968 4.95189 6.39201 5.74999 5.70525C6.50409 5.05635 8.07035 5.1402 8.60719 5.7053Z" fill="url(#paint3_radial_18_29741)"/>
<path d="M18.5792 6.39898C15.8898 4.92285 12.5433 5.39805 10.3695 7.56169L7.5689 10.3724C5.39514 12.5462 4.91995 15.8927 6.40619 18.5821C8.27663 21.9793 11.0772 24.7799 14.4744 26.6503C17.1638 28.1264 20.5103 27.6512 22.6841 25.4876L25.4948 22.6769C27.6686 20.5031 28.1438 17.1566 26.6575 14.4672C24.7871 11.07 21.9865 8.26943 18.5792 6.39898Z" fill="url(#paint4_linear_18_29741)"/>
<g filter="url(#filter0_f_18_29741)">
<path d="M14.625 26.4375C16.4294 27.8187 20.2658 27.5367 22.4062 25.4062L25.1739 22.6386C27.3143 20.4981 27.9164 16.2779 26.25 14.6875C23.6489 12.2049 20.4541 12.4003 16.2178 16.0933C11.8914 19.8648 12.105 24.5086 14.625 26.4375Z" fill="url(#paint5_linear_18_29741)"/>
<path d="M14.625 26.4375C16.4294 27.8187 20.2658 27.5367 22.4062 25.4062L25.1739 22.6386C27.3143 20.4981 27.9164 16.2779 26.25 14.6875C23.6489 12.2049 20.4541 12.4003 16.2178 16.0933C11.8914 19.8648 12.105 24.5086 14.625 26.4375Z" fill="url(#paint6_radial_18_29741)"/>
</g>
<path d="M22.0678 14.8116C21.0822 14.8116 20.1663 15.1899 19.4694 15.8868L15.8854 19.4708C15.1886 20.1677 14.8102 21.0836 14.8102 22.0692C14.8102 23.0548 15.1886 23.9707 15.8854 24.6676C16.5823 25.3645 17.4982 25.7428 18.4838 25.7428C19.4694 25.7428 20.3854 25.3645 21.0822 24.6676L24.6662 21.0836C25.3631 20.3867 25.7414 19.4708 25.7414 18.4852C25.7414 17.4996 25.3631 16.5837 24.6662 15.8868C23.9694 15.1999 23.0435 14.8116 22.0678 14.8116Z" fill="url(#paint7_linear_18_29741)"/>
<path d="M22.0678 14.8116C21.0822 14.8116 20.1663 15.1899 19.4694 15.8868L15.8854 19.4708C15.1886 20.1677 14.8102 21.0836 14.8102 22.0692C14.8102 23.0548 15.1886 23.9707 15.8854 24.6676C16.5823 25.3645 17.4982 25.7428 18.4838 25.7428C19.4694 25.7428 20.3854 25.3645 21.0822 24.6676L24.6662 21.0836C25.3631 20.3867 25.7414 19.4708 25.7414 18.4852C25.7414 17.4996 25.3631 16.5837 24.6662 15.8868C23.9694 15.1999 23.0435 14.8116 22.0678 14.8116Z" fill="url(#paint8_radial_18_29741)"/>
<path d="M29.0323 21.758C27.9655 20.8321 26.3653 20.8724 25.2985 21.7983C25.1174 21.9593 24.8457 21.9492 24.6746 21.7782L21.7561 18.8998C19.9214 17.0443 17.1695 19.922 18.8992 21.758L21.7762 24.6766C21.9473 24.8476 21.9573 25.1194 21.7963 25.3005C20.8704 26.3673 20.8302 27.9675 21.756 29.0342C22.8329 30.2721 24.7148 30.3224 25.8621 29.1751C26.4056 28.6317 26.6773 27.9373 26.6874 27.2227C26.6874 26.9309 26.9289 26.6893 27.2308 26.6793C27.9353 26.6692 28.6398 26.3975 29.1832 25.854C30.3204 24.7269 30.2701 22.8449 29.0323 21.758Z" fill="#D7D4D3"/>
<path d="M29.0323 21.758C27.9655 20.8321 26.3653 20.8724 25.2985 21.7983C25.1174 21.9593 24.8457 21.9492 24.6746 21.7782L21.7561 18.8998C19.9214 17.0443 17.1695 19.922 18.8992 21.758L21.7762 24.6766C21.9473 24.8476 21.9573 25.1194 21.7963 25.3005C20.8704 26.3673 20.8302 27.9675 21.756 29.0342C22.8329 30.2721 24.7148 30.3224 25.8621 29.1751C26.4056 28.6317 26.6773 27.9373 26.6874 27.2227C26.6874 26.9309 26.9289 26.6893 27.2308 26.6793C27.9353 26.6692 28.6398 26.3975 29.1832 25.854C30.3204 24.7269 30.2701 22.8449 29.0323 21.758Z" fill="url(#paint9_radial_18_29741)"/>
<g filter="url(#filter1_f_18_29741)">
<rect x="20.4463" y="18.4078" width="8.00009" height="2.93527" rx="1.46763" transform="rotate(44.3945 20.4463 18.4078)" fill="#B7B2AF"/>
</g>
<path fill-rule="evenodd" clip-rule="evenodd" d="M27.2 26.6555C28.7464 26.6555 30 25.4019 30 23.8555C30 22.3091 28.7464 21.0555 27.2 21.0555C25.6536 21.0555 24.4 22.3091 24.4 23.8555C24.4 23.8601 24.4 23.8646 24.4001 23.8691C24.4014 24.1493 24.1513 24.4006 23.8711 24.4006V24.4006C22.3247 24.4006 21.0711 25.6542 21.0711 27.2006C21.0711 28.747 22.3247 30.0006 23.8711 30.0006C25.4175 30.0006 26.6711 28.747 26.6711 27.2006C26.6711 27.1961 26.6711 27.1915 26.6711 27.187C26.6697 26.9068 26.9198 26.6555 27.2 26.6555V26.6555Z" fill="#B8B3B6"/>
<path fill-rule="evenodd" clip-rule="evenodd" d="M27.2 26.6555C28.7464 26.6555 30 25.4019 30 23.8555C30 22.3091 28.7464 21.0555 27.2 21.0555C25.6536 21.0555 24.4 22.3091 24.4 23.8555C24.4 23.8601 24.4 23.8646 24.4001 23.8691C24.4014 24.1493 24.1513 24.4006 23.8711 24.4006V24.4006C22.3247 24.4006 21.0711 25.6542 21.0711 27.2006C21.0711 28.747 22.3247 30.0006 23.8711 30.0006C25.4175 30.0006 26.6711 28.747 26.6711 27.2006C26.6711 27.1961 26.6711 27.1915 26.6711 27.187C26.6697 26.9068 26.9198 26.6555 27.2 26.6555V26.6555Z" fill="url(#paint10_radial_18_29741)"/>
<path fill-rule="evenodd" clip-rule="evenodd" d="M27.2 26.6555C28.7464 26.6555 30 25.4019 30 23.8555C30 22.3091 28.7464 21.0555 27.2 21.0555C25.6536 21.0555 24.4 22.3091 24.4 23.8555C24.4 23.8601 24.4 23.8646 24.4001 23.8691C24.4014 24.1493 24.1513 24.4006 23.8711 24.4006V24.4006C22.3247 24.4006 21.0711 25.6542 21.0711 27.2006C21.0711 28.747 22.3247 30.0006 23.8711 30.0006C25.4175 30.0006 26.6711 28.747 26.6711 27.2006C26.6711 27.1961 26.6711 27.1915 26.6711 27.187C26.6697 26.9068 26.9198 26.6555 27.2 26.6555V26.6555Z" fill="url(#paint11_radial_18_29741)"/>
<g filter="url(#filter2_f_18_29741)">
<path d="M26.7969 16.2031C26.7656 15.849 26.425 14.5938 25.375 13.8438C24.0625 12.9063 20.5938 12.4063 17.6875 15.1875" stroke="url(#paint12_radial_18_29741)" stroke-width="0.5"/>
</g>
<g filter="url(#filter3_f_18_29741)">
<path d="M14.7188 26.2812C12.8125 25.0938 11.75 22.0312 15.125 17.1562" stroke="url(#paint13_radial_18_29741)" stroke-width="0.5" stroke-linecap="round"/>
</g>
<g filter="url(#filter4_f_18_29741)">
<path d="M6.53125 9.375C5.31251 8.5 4.71247 7.19999 5.68747 5.87499C6.24997 5.2604 7.66563 4.53437 9.26563 6.48437" stroke="url(#paint14_linear_18_29741)" stroke-width="0.5" stroke-linecap="round"/>
</g>
<defs>
<filter id="filter0_f_18_29741" x="12.0776" y="12.2854" width="15.8802" height="15.7495" filterUnits="userSpaceOnUse" color-interpolation-filters="sRGB">
<feFlood flood-opacity="0" result="BackgroundImageFix"/>
<feBlend mode="normal" in="SourceGraphic" in2="BackgroundImageFix" result="shape"/>
<feGaussianBlur stdDeviation="0.375" result="effect1_foregroundBlur_18_29741"/>
</filter>
<filter id="filter1_f_18_29741" x="17.5006" y="17.5156" width="9.55426" height="9.47858" filterUnits="userSpaceOnUse" color-interpolation-filters="sRGB">
<feFlood flood-opacity="0" result="BackgroundImageFix"/>
<feBlend mode="normal" in="SourceGraphic" in2="BackgroundImageFix" result="shape"/>
<feGaussianBlur stdDeviation="0.75" result="effect1_foregroundBlur_18_29741"/>
</filter>
<filter id="filter2_f_18_29741" x="17.0146" y="12.3526" width="10.5312" height="4.3725" filterUnits="userSpaceOnUse" color-interpolation-filters="sRGB">
<feFlood flood-opacity="0" result="BackgroundImageFix"/>
<feBlend mode="normal" in="SourceGraphic" in2="BackgroundImageFix" result="shape"/>
<feGaussianBlur stdDeviation="0.25" result="effect1_foregroundBlur_18_29741"/>
</filter>
<filter id="filter3_f_18_29741" x="12.1839" y="16.4062" width="3.69116" height="10.6251" filterUnits="userSpaceOnUse" color-interpolation-filters="sRGB">
<feFlood flood-opacity="0" result="BackgroundImageFix"/>
<feBlend mode="normal" in="SourceGraphic" in2="BackgroundImageFix" result="shape"/>
<feGaussianBlur stdDeviation="0.25" result="effect1_foregroundBlur_18_29741"/>
</filter>
<filter id="filter4_f_18_29741" x="4.45142" y="4.46747" width="5.56421" height="5.65753" filterUnits="userSpaceOnUse" color-interpolation-filters="sRGB">
<feFlood flood-opacity="0" result="BackgroundImageFix"/>
<feBlend mode="normal" in="SourceGraphic" in2="BackgroundImageFix" result="shape"/>
<feGaussianBlur stdDeviation="0.25" result="effect1_foregroundBlur_18_29741"/>
</filter>
<radialGradient id="paint0_radial_18_29741" cx="0" cy="0" r="1" gradientUnits="userSpaceOnUse" gradientTransform="translate(4.125 7.375) rotate(75.0184) scale(4.59364 4.59312)">
<stop stop-color="#CAC8C5"/>
<stop offset="0.919659" stop-color="#B1AEAA" stop-opacity="0"/>
</radialGradient>
<radialGradient id="paint1_radial_18_29741" cx="0" cy="0" r="1" gradientUnits="userSpaceOnUse" gradientTransform="translate(8.875 3.875) rotate(99.7605) scale(4.81977 4.81921)">
<stop offset="0.152147" stop-color="#F2F0EE"/>
<stop offset="0.85293" stop-color="#F5F3F1" stop-opacity="0"/>
</radialGradient>
<linearGradient id="paint2_linear_18_29741" x1="6.8125" y1="9.68337" x2="10.125" y2="5.9375" gradientUnits="userSpaceOnUse">
<stop offset="0.419949" stop-color="#9D9997"/>
<stop offset="1" stop-color="#D0CECC"/>
</linearGradient>
<radialGradient id="paint3_radial_18_29741" cx="0" cy="0" r="1" gradientUnits="userSpaceOnUse" gradientTransform="translate(8.0625 5.24951) rotate(45.0044) scale(4.50815 3.30666)">
<stop stop-color="#CCCAC7"/>
<stop offset="1" stop-color="#CECBC8" stop-opacity="0"/>
</radialGradient>
<linearGradient id="paint4_linear_18_29741" x1="10.4353" y1="22.8121" x2="24.6532" y2="10.1108" gradientUnits="userSpaceOnUse">
<stop stop-color="#4F3B2E"/>
<stop offset="0.613012" stop-color="#67432F"/>
<stop offset="1" stop-color="#915B42"/>
</linearGradient>
<linearGradient id="paint5_linear_18_29741" x1="14.1333" y1="25.9556" x2="26.7022" y2="15.2533" gradientUnits="userSpaceOnUse">
<stop stop-color="#5E3A40"/>
<stop offset="1" stop-color="#995C4B"/>
</linearGradient>
<radialGradient id="paint6_radial_18_29741" cx="0" cy="0" r="1" gradientUnits="userSpaceOnUse" gradientTransform="translate(16.5625 27.2849) rotate(13.1678) scale(4.23639 4.27526)">
<stop stop-color="#5D3743"/>
<stop offset="1" stop-color="#5F3843" stop-opacity="0"/>
</radialGradient>
<linearGradient id="paint7_linear_18_29741" x1="17.68" y1="17.3689" x2="23.9022" y2="23.0933" gradientUnits="userSpaceOnUse">
<stop stop-color="#D8303C"/>
<stop offset="1" stop-color="#CD2E7C"/>
</linearGradient>
<radialGradient id="paint8_radial_18_29741" cx="0" cy="0" r="1" gradientUnits="userSpaceOnUse" gradientTransform="translate(18.75 22.375) rotate(130.073) scale(5.14554 2.44068)">
<stop stop-color="#AB1F4F"/>
<stop offset="1" stop-color="#AB1F4F" stop-opacity="0"/>
</radialGradient>
<radialGradient id="paint9_radial_18_29741" cx="0" cy="0" r="1" gradientUnits="userSpaceOnUse" gradientTransform="translate(24.1754 24.5) rotate(132.44) scale(4.14982 2.14476)">
<stop stop-color="#A8A1A0"/>
<stop offset="1" stop-opacity="0"/>
</radialGradient>
<radialGradient id="paint10_radial_18_29741" cx="0" cy="0" r="1" gradientUnits="userSpaceOnUse" gradientTransform="translate(28.875 22.8125) rotate(121.239) scale(4.45901 4.45098)">
<stop offset="0.133202" stop-color="#F8F6F4"/>
<stop offset="1" stop-color="#F8F6F4" stop-opacity="0"/>
</radialGradient>
<radialGradient id="paint11_radial_18_29741" cx="0" cy="0" r="1" gradientUnits="userSpaceOnUse" gradientTransform="translate(25 26.375) rotate(133.603) scale(3.625 3.61847)">
<stop offset="0.227111" stop-color="#E1DFDD"/>
<stop offset="1" stop-color="#E1DEDD" stop-opacity="0"/>
</radialGradient>
<radialGradient id="paint12_radial_18_29741" cx="0" cy="0" r="1" gradientUnits="userSpaceOnUse" gradientTransform="translate(23.25 13.8125) rotate(137.951) scale(4.29253 13.317)">
<stop stop-color="#AA7461"/>
<stop offset="1" stop-color="#AA7461" stop-opacity="0"/>
</radialGradient>
<radialGradient id="paint13_radial_18_29741" cx="0" cy="0" r="1" gradientUnits="userSpaceOnUse" gradientTransform="translate(12.5748 22.4063) rotate(74.9824) scale(5.50036 2.94904)">
<stop stop-color="#74574D"/>
<stop offset="1" stop-color="#684D44" stop-opacity="0"/>
</radialGradient>
<linearGradient id="paint14_linear_18_29741" x1="5.03125" y1="8.15625" x2="8.27361" y2="8.01078" gradientUnits="userSpaceOnUse">
<stop stop-color="#9F999C"/>
<stop offset="0.442211" stop-color="#B4B1AD"/>
<stop offset="1" stop-color="#DEDCD9"/>
</linearGradient>
</defs>
</svg>

<svg width="32" height="32" fill="none" xmlns="http://www.w3.org/2000/svg"><path d="M10.141 2.945a2.796 2.796 0 0 1 .01 3.653c-.19.21-.17.518.02.717l3.355 3.355c.786.787.786 2.07 0 2.857a2.025 2.025 0 0 1-2.857 0l-3.355-3.355a.524.524 0 0 0-.717-.02 2.795 2.795 0 0 1-3.654-.01 2.78 2.78 0 0 1-.13-4.051 2.735 2.735 0 0 1 1.922-.817.548.548 0 0 0 .538-.537c.01-.697.279-1.394.816-1.932a2.788 2.788 0 0 1 4.052.14Z" fill="#9A9397"/><path d="M10.141 2.945a2.796 2.796 0 0 1 .01 3.653c-.19.21-.17.518.02.717l3.355 3.355c.786.787.786 2.07 0 2.857a2.025 2.025 0 0 1-2.857 0l-3.355-3.355a.524.524 0 0 0-.717-.02 2.795 2.795 0 0 1-3.654-.01 2.78 2.78 0 0 1-.13-4.051 2.735 2.735 0 0 1 1.922-.817.548.548 0 0 0 .538-.537c.01-.697.279-1.394.816-1.932a2.788 2.788 0 0 1 4.052.14Z" fill="url(#a)"/><path d="M10.141 2.945a2.796 2.796 0 0 1 .01 3.653c-.19.21-.17.518.02.717l3.355 3.355c.786.787.786 2.07 0 2.857a2.025 2.025 0 0 1-2.857 0l-3.355-3.355a.524.524 0 0 0-.717-.02 2.795 2.795 0 0 1-3.654-.01 2.78 2.78 0 0 1-.13-4.051 2.735 2.735 0 0 1 1.922-.817.548.548 0 0 0 .538-.537c.01-.697.279-1.394.816-1.932a2.788 2.788 0 0 1 4.052.14Z" fill="url(#b)"/><path d="m8.607 5.705 4.919 4.965c.786.787.786 2.07 0 2.857a2.025 2.025 0 0 1-2.857 0l-4.92-4.964c-.75-.713-.797-2.171.001-2.858.754-.649 2.32-.565 2.857 0Z" fill="url(#c)"/><path d="m8.607 5.705 4.919 4.965c.786.787.786 2.07 0 2.857a2.025 2.025 0 0 1-2.857 0l-4.92-4.964c-.75-.713-.797-2.171.001-2.858.754-.649 2.32-.565 2.857 0Z" fill="url(#d)"/><path d="M18.58 6.399a6.923 6.923 0 0 0-8.21 1.163l-2.801 2.81a6.893 6.893 0 0 0-1.163 8.21 20.504 20.504 0 0 0 8.068 8.068 6.923 6.923 0 0 0 8.21-1.162l2.81-2.811a6.893 6.893 0 0 0 1.163-8.21A20.464 20.464 0 0 0 18.58 6.4Z" fill="url(#e)"/><g filter="url(#f)"><path d="M14.625 26.438c1.804 1.38 5.64 1.099 7.781-1.032l2.768-2.767c2.14-2.14 2.742-6.361 1.076-7.951-2.601-2.483-5.796-2.288-10.032 1.405-4.327 3.772-4.113 8.416-1.593 10.345Z" fill="url(#g)"/><path d="M14.625 26.438c1.804 1.38 5.64 1.099 7.781-1.032l2.768-2.767c2.14-2.14 2.742-6.361 1.076-7.951-2.601-2.483-5.796-2.288-10.032 1.405-4.327 3.772-4.113 8.416-1.593 10.345Z" fill="url(#h)"/></g><path d="M22.068 14.812c-.986 0-1.902.378-2.599 1.075l-3.584 3.584a3.636 3.636 0 0 0-1.075 2.598c0 .986.379 1.902 1.075 2.599a3.636 3.636 0 0 0 2.599 1.075c.985 0 1.901-.378 2.598-1.075l3.584-3.584a3.636 3.636 0 0 0 1.075-2.599c0-.985-.378-1.901-1.075-2.598a3.695 3.695 0 0 0-2.598-1.075Z" fill="url(#i)"/><path d="M22.068 14.812c-.986 0-1.902.378-2.599 1.075l-3.584 3.584a3.636 3.636 0 0 0-1.075 2.598c0 .986.379 1.902 1.075 2.599a3.636 3.636 0 0 0 2.599 1.075c.985 0 1.901-.378 2.598-1.075l3.584-3.584a3.636 3.636 0 0 0 1.075-2.599c0-.985-.378-1.901-1.075-2.598a3.695 3.695 0 0 0-2.598-1.075Z" fill="url(#j)"/><path d="M29.032 21.758c-1.067-.926-2.667-.886-3.733.04a.453.453 0 0 1-.624-.02L21.756 18.9c-1.835-1.856-4.587 1.022-2.857 2.858l2.877 2.919a.453.453 0 0 1 .02.623c-.926 1.067-.966 2.668-.04 3.734a2.805 2.805 0 0 0 4.106.141 2.788 2.788 0 0 0 .825-1.952c0-.292.242-.534.544-.544a2.806 2.806 0 0 0 1.952-.825c1.137-1.127 1.087-3.01-.15-4.096Z" fill="#D7D4D3"/><path d="M29.032 21.758c-1.067-.926-2.667-.886-3.733.04a.453.453 0 0 1-.624-.02L21.756 18.9c-1.835-1.856-4.587 1.022-2.857 2.858l2.877 2.919a.453.453 0 0 1 .02.623c-.926 1.067-.966 2.668-.04 3.734a2.805 2.805 0 0 0 4.106.141 2.788 2.788 0 0 0 .825-1.952c0-.292.242-.534.544-.544a2.806 2.806 0 0 0 1.952-.825c1.137-1.127 1.087-3.01-.15-4.096Z" fill="url(#k)"/><g filter="url(#l)"><rect x="20.446" y="18.408" width="8" height="2.935" rx="1.468" transform="rotate(44.395 20.446 18.408)" fill="#B7B2AF"/></g><path fill-rule="evenodd" clip-rule="evenodd" d="M27.2 26.655a2.8 2.8 0 1 0-2.8-2.786.546.546 0 0 1-.529.532 2.8 2.8 0 1 0 2.8 2.8v-.014a.546.546 0 0 1 .529-.532Z" fill="#B8B3B6"/><path fill-rule="evenodd" clip-rule="evenodd" d="M27.2 26.655a2.8 2.8 0 1 0-2.8-2.786.546.546 0 0 1-.529.532 2.8 2.8 0 1 0 2.8 2.8v-.014a.546.546 0 0 1 .529-.532Z" fill="url(#m)"/><path fill-rule="evenodd" clip-rule="evenodd" d="M27.2 26.655a2.8 2.8 0 1 0-2.8-2.786.546.546 0 0 1-.529.532 2.8 2.8 0 1 0 2.8 2.8v-.014a.546.546 0 0 1 .529-.532Z" fill="url(#n)"/><g filter="url(#o)"><path d="M26.797 16.203c-.031-.354-.372-1.61-1.422-2.36-1.313-.937-4.781-1.437-7.688 1.345" stroke="url(#p)" stroke-width=".5"/></g><g filter="url(#q)"><path d="M14.719 26.281c-1.906-1.187-2.969-4.25.406-9.125" stroke="url(#r)" stroke-width=".5" stroke-linecap="round"/></g><g filter="url(#s)"><path d="M6.531 9.375C5.313 8.5 4.712 7.2 5.687 5.875c.563-.615 1.979-1.34 3.579.61" stroke="url(#t)" stroke-width=".5" stroke-linecap="round"/></g><defs><radialGradient id="a" cx="0" cy="0" r="1" gradientUnits="userSpaceOnUse" gradientTransform="matrix(1.1875 4.4375 -4.437 1.18736 4.125 7.375)"><stop stop-color="#CAC8C5"/><stop offset=".92" stop-color="#B1AEAA" stop-opacity="0"/></radialGradient><radialGradient id="b" cx="0" cy="0" r="1" gradientUnits="userSpaceOnUse" gradientTransform="matrix(-.8171 4.75 -4.74945 -.817 8.875 3.875)"><stop offset=".152" stop-color="#F2F0EE"/><stop offset=".853" stop-color="#F5F3F1" stop-opacity="0"/></radialGradient><radialGradient id="d" cx="0" cy="0" r="1" gradientUnits="userSpaceOnUse" gradientTransform="matrix(3.1875 3.18799 -2.33834 2.33798 8.063 5.25)"><stop stop-color="#CCCAC7"/><stop offset="1" stop-color="#CECBC8" stop-opacity="0"/></radialGradient><radialGradient id="h" cx="0" cy="0" r="1" gradientUnits="userSpaceOnUse" gradientTransform="matrix(4.125 .96507 -.97392 4.16285 16.563 27.285)"><stop stop-color="#5D3743"/><stop offset="1" stop-color="#5F3843" stop-opacity="0"/></radialGradient><radialGradient id="j" cx="0" cy="0" r="1" gradientUnits="userSpaceOnUse" gradientTransform="matrix(-3.3125 3.9375 -1.86767 -1.57122 18.75 22.375)"><stop stop-color="#AB1F4F"/><stop offset="1" stop-color="#AB1F4F" stop-opacity="0"/></radialGradient><radialGradient id="k" cx="0" cy="0" r="1" gradientUnits="userSpaceOnUse" gradientTransform="rotate(132.44 6.69 17.576) scale(4.14982 2.14476)"><stop stop-color="#A8A1A0"/><stop offset="1" stop-opacity="0"/></radialGradient><radialGradient id="m" cx="0" cy="0" r="1" gradientUnits="userSpaceOnUse" gradientTransform="matrix(-2.31248 3.8125 -3.80564 -2.30832 28.875 22.813)"><stop offset=".133" stop-color="#F8F6F4"/><stop offset="1" stop-color="#F8F6F4" stop-opacity="0"/></radialGradient><radialGradient id="n" cx="0" cy="0" r="1" gradientUnits="userSpaceOnUse" gradientTransform="matrix(-2.5 2.625 -2.62026 -2.4955 25 26.375)"><stop offset=".227" stop-color="#E1DFDD"/><stop offset="1" stop-color="#E1DEDD" stop-opacity="0"/></radialGradient><radialGradient id="p" cx="0" cy="0" r="1" gradientUnits="userSpaceOnUse" gradientTransform="matrix(-3.18751 2.87499 -8.91927 -9.88884 23.25 13.813)"><stop stop-color="#AA7461"/><stop offset="1" stop-color="#AA7461" stop-opacity="0"/></radialGradient><radialGradient id="r" cx="0" cy="0" r="1" gradientUnits="userSpaceOnUse" gradientTransform="rotate(74.982 -8.317 19.4) scale(5.50036 2.94904)"><stop stop-color="#74574D"/><stop offset="1" stop-color="#684D44" stop-opacity="0"/></radialGradient><linearGradient id="c" x1="6.813" y1="9.683" x2="10.125" y2="5.938" gradientUnits="userSpaceOnUse"><stop offset=".42" stop-color="#9D9997"/><stop offset="1" stop-color="#D0CECC"/></linearGradient><linearGradient id="e" x1="10.435" y1="22.812" x2="24.653" y2="10.111" gradientUnits="userSpaceOnUse"><stop stop-color="#4F3B2E"/><stop offset=".613" stop-color="#67432F"/><stop offset="1" stop-color="#915B42"/></linearGradient><linearGradient id="g" x1="14.133" y1="25.956" x2="26.702" y2="15.253" gradientUnits="userSpaceOnUse"><stop stop-color="#5E3A40"/><stop offset="1" stop-color="#995C4B"/></linearGradient><linearGradient id="i" x1="17.68" y1="17.369" x2="23.902" y2="23.093" gradientUnits="userSpaceOnUse"><stop stop-color="#D8303C"/><stop offset="1" stop-color="#CD2E7C"/></linearGradient><linearGradient id="t" x1="5.031" y1="8.156" x2="8.274" y2="8.011" gradientUnits="userSpaceOnUse"><stop stop-color="#9F999C"/><stop offset=".442" stop-color="#B4B1AD"/><stop offset="1" stop-color="#DEDCD9"/></linearGradient><filter id="f" x="12.078" y="12.285" width="15.88" height="15.749" filterUnits="userSpaceOnUse" color-interpolation-filters="sRGB"><feFlood flood-opacity="0" result="BackgroundImageFix"/><feBlend in="SourceGraphic" in2="BackgroundImageFix" result="shape"/><feGaussianBlur stdDeviation=".375" result="effect1_foregroundBlur_18_29741"/></filter><filter id="l" x="17.501" y="17.516" width="9.554" height="9.479" filterUnits="userSpaceOnUse" color-interpolation-filters="sRGB"><feFlood flood-opacity="0" result="BackgroundImageFix"/><feBlend in="SourceGraphic" in2="BackgroundImageFix" result="shape"/><feGaussianBlur stdDeviation=".75" result="effect1_foregroundBlur_18_29741"/></filter><filter id="o" x="17.015" y="12.353" width="10.531" height="4.372" filterUnits="userSpaceOnUse" color-interpolation-filters="sRGB"><feFlood flood-opacity="0" result="BackgroundImageFix"/><feBlend in="SourceGraphic" in2="BackgroundImageFix" result="shape"/><feGaussianBlur stdDeviation=".25" result="effect1_foregroundBlur_18_29741"/></filter><filter id="q" x="12.184" y="16.406" width="3.691" height="10.625" filterUnits="userSpaceOnUse" color-interpolation-filters="sRGB"><feFlood flood-opacity="0" result="BackgroundImageFix"/><feBlend in="SourceGraphic" in2="BackgroundImageFix" result="shape"/><feGaussianBlur stdDeviation=".25" result="effect1_foregroundBlur_18_29741"/></filter><filter id="s" x="4.451" y="4.467" width="5.564" height="5.658" filterUnits="userSpaceOnUse" color-interpolation-filters="sRGB"><feFlood flood-opacity="0" result="BackgroundImageFix"/><feBlend in="SourceGraphic" in2="BackgroundImageFix" result="shape"/><feGaussianBlur stdDeviation=".25" result="effect1_foregroundBlur_18_29741"/></filter></defs></svg>
